!!!COM:	Bach, Johann Sebastian
!!!CDT:	1685/02/21/-1750/07/28/
!!!OTL@@DE:	Herzlich tut mich verlangen
!!!SCT:	BWV 153/5
!!!PC#:	21
!!!AGN:	chorale
**harm	**kern	**kern	**kern	**kern
*	*ICvox	*ICvox	*ICvox	*ICvox
*	*Ibass	*Itenor	*Ialto	*Isoprn
*	*I"Bass	*I"Tenor	*I"Alto	*I"Soprano
*>[A,A,B]	*>[A,A,B]	*>[A,A,B]	*>[A,A,B]	*>[A,A,B]
*>norep[A,B]	*>norep[A,B]	*>norep[A,B]	*>norep[A,B]	*>norep[A,B]
*>A	*>A	*>A	*>A	*>A
*	*	*oclefC4	*oclefC3	*oclefC1
*	*clefF4	*clefGv2	*clefG2	*clefG2
*k[]	*k[]	*k[]	*k[]	*k[]
*a:	*a:	*a:	*a:	*a:
*M4/4	*M4/4	*M4/4	*M4/4	*M4/4
*met(c)	*met(c)	*met(c)	*met(c)	*met(c)
*MM100	*MM100	*MM100	*MM100	*MM100
V2	4D	4G#	4B	4e
=1	=1	=1	=1	=1
i6	4C	4A	4e	4a
viio6/iv	4C#	4B-	4e	4g
iv	4D	4A	4d	4f
d:viio6	4E	4G	4c#	4e
=2	=2	=2	=2	=2
i6	4F	4A	4d	4d
iv6	4BB-	4G	4d	4d
V;	4AA;	4A;	4c#;	4e;
a:v6	4G	4B	4e	4b
=3	=3	=3	=3	=3
viio65/V	4F#	4A	4d#	4cc
i64	4E	4A	4e	4cc
V65/V	4D#	4A	4f#	4b
V7	4E	4G#	4d	4b
=4	=4	=4	=4	=4
i;	2.AA;	2.A;	2.c;	2.a;
*>B	*>B	*>B	*>B	*>B
viio6/VII	4A	4A	4f#	4cc
=5	=5	=5	=5	=5
C:V	4G	4d	4g	4b
V2	4FnX	4B	4d	4g
vi64	4E	4c	4e	4a
viio6	4D	4d	4f	4b
=6	=6	=6	=6	=6
I6	8EL	8cL	8gL	8ccL
V65/IV	8EJ	8B-J	8gJ	8ccJ
F:I	4F	4A	4f	4cc
V;	4C;	4G;	4e;	4cc;
V6	4E	4c	4g	4g
=7	=7	=7	=7	=7
I	4F	4c	4f	4a
ii6	4B-	4d	4d	4g
d:V6	4C#X	4A	4e	4a
i	4D	4A	4d	4f
=8	=8	=8	=8	=8
V;	2.AA;	2.A;	2.c#;	2.e;
G:V65	4F#	4A	4d	4cc
=9	=9	=9	=9	=9
I	4G	4G	4d	4b
I	4GG	4B	4g	4dd
viio6	4AA	4c	4f#	4cc
I6	4BB	4d	4g	4b
=10	=10	=10	=10	=10
ii65	4C	4e	4g	4a
V	4D	4d	4f#	4a
I;	4GG;	4d;	4g;	4b;
IV	4C	4cL	4g	4e
=11	=11	=11	=11	=11
v	4D	4A	4d	4fnX
IV6	4E	4G	4c	4e
V65	4F#	4A	4c	4d
I	4G	4G	4B	4g
=12	=12	=12	=12	=12
a:V65	4G#	4B	4d	4e
i	4A	4A	4c	4e
V;	4E;	4G#;	4B;	4e;
==	==	==	==	==
*-	*-	*-	*-	*-
!!!YOR1: 371 vierstimmige Choralges&auml;nge von Johann Sebastian Bach, 
!!!YOR2: 4th ed. by Alfred D&ouml;rffel (Leipzig: Breitkopf und H&auml;rtel, 
!!!YOR2: c.1875). 178 pp. Plate "V.A.10".  reprint: J.S. Bach, 371 Four-Part 
!!!YOR4: Chorales (New York: Associated Music Publishers, Inc., c.1940).
!!!SMS: B&H, 4th ed, Alfred D&ouml;rffel, c.1875, plate V.A.10
!!!EED:  Craig Stuart Sapp
!!!EEV:  2009/05/22
